.local/share/icons/Gruvbox-Plus-Dark/actions/16/labplot-shift-down-y.svg

<svg xmlns="http://www.w3.org/2000/svg" width="16" height="16" viewBox="0 0 16 16">
 <defs>
  <style id="current-color-scheme" type="text/css">
   .ColorScheme-Text { color:#ebdbb2; } .ColorScheme-Highlight { color:#458588; }
  </style>
 </defs>
 <path style="fill:currentColor" class="ColorScheme-Text" d="M 8 3 L 6 7 L 10 7 L 8 3 z M 4 9 L 0 11 L 4 13 L 4 9 z M 12 9 L 12 13 L 16 11 L 12 9 z M 8 10 C 7.446 10 7 10.446 7 11 C 7 11.554 7.446 12 8 12 C 8.554 12 9 11.554 9 11 C 9 10.446 8.554 10 8 10 z"/>
</svg>

<svg width="16" height="16" version="1.1" xmlns="http://www.w3.org/2000/svg">
  <defs>
    <style id="current-color-scheme" type="text/css">.ColorScheme-Text { color:#ebdbb2; } .ColorScheme-Highlight { color:#458588; }</style>
  </defs>
  <path class="ColorScheme-Text" d="m8 3-2 4h4l-2-4zm-4 6-4 2 4 2v-4zm4 0a2 2 0 0 0-2 2 2 2 0 0 0 2 2 2 2 0 0 0 2-2 2 2 0 0 0-2-2zm4 0v4l4-2-4-2z" fill="currentColor"/>
</svg>
